Obsidian-SemiLight/actions/22s/step_object_CoulombForce.svg

<svg viewBox="0 0 22 22" xmlns="http://www.w3.org/2000/svg"><path d="m12.087891 1 .367187.3789062 1.621094 1.6210938h-2.076172-8v1h10.076172 2.423828l-.509766-.5-2.5-2.5zm-8.087891 4v14h1v-7h6v-1h-6v-5h8v-1h-8z" fill="#4d4d4d"/><path d="m15.5 12a3.4999979 3.5 0 0 0 -3.5 3.5 3.4999979 3.5 0 0 0 3.5 3.5 3.4999979 3.5 0 0 0 2.472656-1.027344l-.705078-.705078a2.5 2.5 0 0 1 -1.767578.732422 2.5 2.5 0 0 1 -2.5-2.5 2.5 2.5 0 0 1 2.5-2.5 2.5 2.5 0 0 1 1.767578.732422l.705078-.705078a3.4999979 3.5 0 0 0 -2.472656-1.027344z" fill="#3daee9"/></svg>

<svg xmlns="http://www.w3.org/2000/svg" viewBox="0 0 22 22">
  <defs id="defs3051">
    <style type="text/css" id="current-color-scheme">
      .ColorScheme-Text {
        color:#4d4d4d;
      }
      .ColorScheme-Highlight {
        color:#3daee9;
      }
      </style>
  </defs>
 <path 
     style="fill:currentColor;fill-opacity:1;stroke:none" 
     d="M 12.087891 1 L 12.455078 1.3789062 L 14.076172 3 L 12 3 L 4 3 L 4 4 L 14.076172 4 L 16.5 4 L 15.990234 3.5 L 13.490234 1 L 12.087891 1 z M 4 5 L 4 19 L 5 19 L 5 12 L 11 12 L 11 11 L 5 11 L 5 6 L 13 6 L 13 5 L 5 5 L 4 5 z "
     class="ColorScheme-Text"
     />
 <path 
     style="fill:currentColor;fill-opacity:1;stroke:none" 
     d="M 15.5 12 A 3.4999979 3.5 0 0 0 12 15.5 A 3.4999979 3.5 0 0 0 15.5 19 A 3.4999979 3.5 0 0 0 17.972656 17.972656 L 17.267578 17.267578 A 2.5 2.5 0 0 1 15.5 18 A 2.5 2.5 0 0 1 13 15.5 A 2.5 2.5 0 0 1 15.5 13 A 2.5 2.5 0 0 1 17.267578 13.732422 L 17.972656 13.027344 A 3.4999979 3.5 0 0 0 15.5 12 z "
     class="ColorScheme-Highlight"
     />
</svg>
